build/dist/assets/images/services/services-8.svg

<svg width="81" height="64" viewBox="0 0 81 64" fill="none" xmlns="http://www.w3.org/2000/svg">
<mask id="mask0_801_690" style="mask-type:luminance" maskUnits="userSpaceOnUse" x="13" y="4" width="55" height="55">
<path d="M13 4H68V59H13V4Z" fill="white"/>
</mask>
<g mask="url(#mask0_801_690)">
<path d="M14.0371 24.256V57.1201C14.0371 57.7134 14.5181 58.1943 15.1113 58.1943H65.8917C66.4849 58.1943 66.9659 57.7134 66.9659 57.1201V5.87988C66.9659 5.28659 66.4849 4.80566 65.8917 4.80566H15.1113C14.5181 4.80566 14.0371 5.28659 14.0371 5.87988V20.4962" stroke="#009B97" stroke-width="1.5" stroke-miterlimit="10" stroke-linecap="round" stroke-linejoin="round"/>
<path d="M31.9626 43.0113C31.9519 43.0274 31.9401 43.0425 31.9284 43.0586M31.9284 43.0586C30.9142 44.4035 29.0085 44.7666 27.1963 44.1199C26.946 44.0308 26.6667 44.1103 26.511 44.3251L25.1791 46.1706C25.107 46.2707 25.0683 46.391 25.0683 46.5144V58.1943H21.0368V50.2816C21.0368 49.9647 20.9756 49.6511 20.8574 49.3578L19.6704 46.4155C19.3396 45.5953 19.3212 44.6821 19.6188 43.8492L19.9454 42.9361C20.1667 42.3163 20.8456 41.9897 21.4675 42.2035L21.9101 42.3561C22.4107 42.5279 22.965 42.3518 23.2754 41.9221L23.8534 41.1218C23.211 39.7489 23.24 38.2396 24.0768 37.1311C24.5462 36.5091 25.2021 36.0795 25.9599 35.8979C26.8949 35.8597 29.1421 36.4683 30.3637 38.2005C31.5853 39.9327 31.9284 41.1218 31.9284 43.0586Z" stroke="#009B97" stroke-width="1.5" stroke-miterlimit="10" stroke-linecap="round" stroke-linejoin="round"/>
<path d="M49.0733 43.0586C50.0875 44.4035 51.9932 44.7666 53.8054 44.1199C54.0557 44.0308 54.335 44.1103 54.4907 44.3251L55.8228 46.1706C55.8946 46.2705 55.9334 46.3908 55.9334 46.5144V58.1943H59.9649V50.2816C59.965 49.965 60.0259 49.6514 60.1443 49.3578L61.3313 46.4155C61.6622 45.5948 61.6805 44.6817 61.3829 43.8492L61.0563 42.9361C60.8351 42.3163 60.1562 41.9897 59.5342 42.2035L59.0916 42.3561C58.591 42.5279 58.0367 42.3518 57.7263 41.9221L57.1483 41.1218C57.7907 39.7489 57.7617 38.2396 56.9249 37.1311C56.4555 36.5091 55.7996 36.0795 55.0418 35.8979C54.1671 35.8463 52.0833 36.1541 50.7455 37.7977C50.1881 38.514 49.0733 40.569 49.0733 43.0586ZM49.0733 43.0586C49.0616 43.0425 49.0498 43.0274 49.0391 43.0113" stroke="#009B97" stroke-width="1.5" stroke-miterlimit="10" stroke-linecap="round" stroke-linejoin="round"/>
<path d="M36.7266 4.80557V29.2451" stroke="#009B97" stroke-width="1.5" stroke-miterlimit="10" stroke-linecap="round" stroke-linejoin="round"/>
<path d="M44.2754 29.2451V4.80557" stroke="#009B97" stroke-width="1.5" stroke-miterlimit="10" stroke-linecap="round" stroke-linejoin="round"/>
<path d="M36.7266 22.7501C38.9473 24.3408 42.0524 24.3408 44.2732 22.7501" stroke="#009B97" stroke-width="1.5" stroke-miterlimit="10" stroke-linecap="round" stroke-linejoin="round"/>
<path d="M36.7266 15.5443C38.9473 17.135 42.0524 17.135 44.2732 15.5443" stroke="#009B97" stroke-width="1.5" stroke-miterlimit="10" stroke-linecap="round" stroke-linejoin="round"/>
<path d="M36.7266 8.33822C38.9473 9.92893 42.0524 9.92893 44.2732 8.33822" stroke="#009B97" stroke-width="1.5" stroke-miterlimit="10" stroke-linecap="round" stroke-linejoin="round"/>
<path d="M52.65 22.6513C51.2374 23.2221 50.0581 24.2493 49.2946 25.55C48.1043 27.5775 46.0469 28.9451 43.733 29.3606C41.5955 29.7443 39.4067 29.7443 37.2692 29.3606C34.9553 28.9451 32.8978 27.5775 31.7076 25.55C30.4551 23.4165 28.0848 22.0191 25.4 22.164C21.9034 22.3526 19.0793 25.2005 18.9177 28.6985C18.7354 32.6413 21.8781 35.8951 25.7808 35.8951C29.7002 35.8951 31.97 39.5177 31.97 43.4012C31.97 45.8789 33.9785 47.8875 36.4562 47.8875C37.856 47.8875 39.1061 47.2463 39.9288 46.2415C40.222 45.8835 40.7801 45.8835 41.0734 46.2415C41.896 47.2463 43.1462 47.8875 44.546 47.8875C47.0237 47.8875 49.0322 45.8789 49.0322 43.4012C49.0322 39.5177 51.302 35.8951 55.2214 35.8951C59.124 35.8951 62.2667 32.6413 62.0844 28.6985C61.9344 25.4478 59.4847 22.7585 56.3329 22.2431M48.0006 33.2426C46.7406 36.3262 45.0008 39.8959 40.5011 39.8959C36.0013 39.8959 34.2615 36.3262 33.0016 33.2426C32.74 32.6024 33.4086 31.9766 34.0292 32.2818C38.3438 34.4043 42.6584 34.4043 46.973 32.2818C47.5935 31.9766 48.2621 32.6024 48.0006 33.2426Z" stroke="#009B97" stroke-width="1.5" stroke-miterlimit="10" stroke-linecap="round" stroke-linejoin="round"/>
<path d="M19.0195 8.66064H21.2834" stroke="#009B97" stroke-width="1.5" stroke-miterlimit="10" stroke-linecap="round" stroke-linejoin="round"/>
<path d="M19.0195 12.1064H26.0057" stroke="#009B97" stroke-width="1.5" stroke-miterlimit="10" stroke-linecap="round" stroke-linejoin="round"/>
<path d="M19.0195 15.5522H26.0057" stroke="#009B97" stroke-width="1.5" stroke-miterlimit="10" stroke-linecap="round" stroke-linejoin="round"/>
</g>
</svg>

<svg width="81" height="64" fill="none" xmlns="http://www.w3.org/2000/svg"><mask id="mask0_801_690" style="mask-type:luminance" maskUnits="userSpaceOnUse" x="13" y="4" width="55" height="55"><path d="M13 4h55v55H13V4z" fill="#fff"/></mask><g mask="url(#mask0_801_690)" stroke="#009B97" stroke-width="1.5" stroke-miterlimit="10" stroke-linecap="round" stroke-linejoin="round"><path d="M14.037 24.256V57.12c0 .593.481 1.074 1.074 1.074h50.78c.594 0 1.075-.48 1.075-1.074V5.88c0-.593-.481-1.074-1.074-1.074h-50.78c-.594 0-1.075.48-1.075 1.074v14.616"/><path d="M31.963 43.011l-.035.048m0 0c-1.014 1.345-2.92 1.708-4.732 1.06a.596.596 0 00-.685.206l-1.332 1.846c-.072.1-.11.22-.11.343v11.68h-4.032v-7.912c0-.317-.061-.63-.18-.924l-1.187-2.942a3.612 3.612 0 01-.051-2.567l.326-.913c.222-.62.9-.946 1.523-.733l.442.153c.5.172 1.055-.004 1.365-.434l.578-.8c-.642-1.373-.613-2.882.224-3.99a3.307 3.307 0 011.883-1.234c.935-.038 3.182.57 4.404 2.302 1.221 1.733 1.564 2.922 1.564 4.859zm17.145 0c1.014 1.345 2.92 1.708 4.732 1.06a.599.599 0 01.686.206l1.332 1.846c.072.1.11.22.11.343v11.68h4.032v-7.912c0-.317.06-.63.18-.924l1.186-2.942a3.61 3.61 0 00.052-2.567l-.327-.913c-.22-.62-.9-.946-1.522-.733l-.442.153a1.203 1.203 0 01-1.366-.434l-.578-.8c.643-1.373.614-2.882-.223-3.99a3.307 3.307 0 00-1.883-1.234c-.875-.052-2.959.256-4.297 1.9-.557.716-1.672 2.771-1.672 5.26zm0 0l-.034-.048M36.727 4.806v24.44m7.548-.001V4.805M36.727 22.75c2.22 1.59 5.325 1.59 7.546 0m-7.546-7.206c2.22 1.591 5.325 1.591 7.546 0m-7.546-7.206c2.22 1.59 5.325 1.59 7.546 0"/><path d="M52.65 22.651a6.893 6.893 0 00-3.355 2.899c-1.19 2.027-3.248 3.395-5.562 3.81a18.292 18.292 0 01-6.464 0c-2.314-.415-4.371-1.782-5.561-3.81a6.864 6.864 0 00-6.308-3.386c-3.497.189-6.32 3.037-6.482 6.534a6.87 6.87 0 006.863 7.197c3.92 0 6.189 3.623 6.189 7.506a4.486 4.486 0 007.959 2.84.744.744 0 011.144 0 4.486 4.486 0 007.959-2.84c0-3.883 2.27-7.506 6.19-7.506a6.87 6.87 0 006.862-7.197c-.15-3.25-2.6-5.94-5.751-6.455m-8.332 11c-1.26 3.083-3 6.653-7.5 6.653s-6.24-3.57-7.5-6.653c-.261-.64.408-1.266 1.028-.961 4.315 2.122 8.63 2.122 12.944 0 .62-.305 1.29.32 1.028.96zM19.02 8.66h2.263m-2.263 3.446h6.986m-6.986 3.446h6.986"/></g></svg>
